X:0026
M:6/8
L:1/8
Q:3/8=86
K:G
d/c/|B2B Bcd| G2G GFG|A2A ABc |   BAB G2
                               [2 d2d d2||
d   |e2d def|e2d e2d|c2B ABG|FEF D2

